X: 374
T: Yunshu duizhang jiangjieshi
%%abc-version 2.0
%%abcx-abcm2ps-target-version 5.9.1 (29 Sep 2008)
%%abc-creator hum2abc beta
%%abcx-conversion-date 2013/10/02 07:52:30
%%abc-edited-by Helmut Schaffrath
%%humdrum-veritas 631479746
%%humdrum-veritas-data 4093601538
%%continueall 1
%%barnumbers 0
L: 1/8
M: 3/4
K: F
c c =B c [I:setbarnb 1]| 
zd2AG2 | 
[M:2/4]c c =B c | 
[M:3/4]zd2AG2 | 
[M:2/4]f d f d | 
c f B A | 
G F _E F | 
zB2DC2 |]  



